X:612
T:Mason's Apron #1, The
C:Joe Buchanan's Scottish Tome - Page 179.3
I:179 3
Z:Carl Allison
R:Reel
L:1/8
M:4/4
K:A
e/d/ | cA A/B/A/F/  | E/F/A/B/  cB/A/  | dB B/c/B/A/  | B/c/d/e/  fe/d/  |
cA A/B/A/F/  | E/F/A/B/  cB/A/  | B/c/d/e/  f/g/a/f/  | e/d/c/B/  A :|
e/d/ | c/A/e/A/  f/A/e/A/ | c/A/e/A/ f/e/d/c/ | d/B/f/B/  g/B/f/B/  | d/B/f/B/  g/f/e/d/  |
c/A/e/A/  f/A/e/A/ | c/A/e/A/ f/e/d/c/ | B/c/d/e/ f/g/a/f/ | e/d/c/B/ A :|

